icons/clojure.svg

<svg width="32" height="32" viewBox="0 0 32 32" fill="none" xmlns="http://www.w3.org/2000/svg">
<path d="M16 2C13.2311 2 10.5243 2.82109 8.22202 4.35943C5.91973 5.89777 4.12532 8.08427 3.06569 10.6424C2.00607 13.2006 1.72882 16.0155 2.26901 18.7313C2.80921 21.447 4.14258 23.9416 6.10051 25.8995C8.05845 27.8574 10.553 29.1908 13.2687 29.731C15.9845 30.2712 18.7994 29.9939 21.3576 28.9343C23.9157 27.8747 26.1022 26.0803 27.6406 23.778C29.1789 21.4757 30 18.7689 30 16C29.9958 12.2883 28.5194 8.72977 25.8948 6.10518C23.2702 3.48059 19.7117 2.00423 16 2Z" fill="white"/>
<path d="M15.488 16.252C15.362 16.525 15.223 16.831 15.08 17.152C14.5616 18.2669 14.1335 19.4216 13.8 20.605C13.7172 20.9843 13.6773 21.3718 13.681 21.76C13.681 21.934 13.69 22.116 13.705 22.302C15.1256 22.8254 16.6822 22.8491 18.118 22.369C17.959 22.2258 17.8119 22.07 17.678 21.903C16.778 20.757 16.278 19.076 15.484 16.251" fill="#91DC47"/>
<path d="M12.169 10.556C11.2969 11.1672 10.5836 11.9781 10.0888 12.9211C9.59389 13.8641 9.33174 14.9117 9.3242 15.9766C9.31667 17.0416 9.56396 18.0928 10.0454 19.0427C10.5269 19.9926 11.2286 20.8135 12.092 21.437C12.503 19.727 13.532 18.161 15.075 15.022C14.983 14.77 14.875 14.495 14.762 14.205C14.3883 13.164 13.848 12.1906 13.162 11.323C12.8668 11.0211 12.5301 10.7628 12.162 10.556" fill="#91DC47"/>
<path d="M21.84 23.7C21.0731 23.6234 20.3165 23.4655 19.583 23.229C17.834 24.0998 15.8278 24.3036 13.9394 23.8023C12.0511 23.301 10.41 22.129 9.32325 20.5054C8.23648 18.8818 7.77842 16.9179 8.03477 14.981C8.29111 13.0441 9.24429 11.267 10.716 9.98201C10.2579 9.86923 9.78783 9.81182 9.31601 9.811C6.95801 9.833 4.46801 11.138 3.43201 14.663C3.36048 15.1129 3.33568 15.569 3.35801 16.024C3.35717 18.7129 4.2132 21.332 5.80186 23.5014C7.39051 25.6707 9.62913 27.2774 12.1928 28.0882C14.7565 28.899 17.5119 28.8717 20.059 28.0103C22.6062 27.149 24.8126 25.4984 26.358 23.298C25.2308 23.5866 24.0734 23.7407 22.91 23.757C22.5525 23.7596 22.1952 23.7405 21.84 23.7Z" fill="#63B132"/>
<path d="M19.463 21.244C19.6251 21.3138 19.7923 21.3712 19.963 21.416C20.8107 20.7952 21.5002 19.9834 21.9757 19.0464C22.4512 18.1095 22.6993 17.0737 22.7 16.023C22.7014 14.964 22.451 13.9198 21.9694 12.9766C21.4879 12.0334 20.7891 11.2182 19.9305 10.5981C19.072 9.97812 18.0784 9.57108 17.0316 9.41057C15.9848 9.25006 14.9149 9.3407 13.91 9.675C15.268 11.223 15.921 13.436 16.553 15.856C16.553 15.856 16.753 16.529 17.1 17.418C17.4595 18.3908 17.9162 19.3248 18.463 20.206C18.7048 20.6293 19.0485 20.9854 19.463 21.242" fill="#90B4FE"/>
<path d="M16.013 3.372C14.0023 3.37088 12.0204 3.84975 10.2321 4.76879C8.44372 5.68784 6.90059 7.02051 5.73099 8.656C6.77017 7.99278 7.97821 7.64251 9.21099 7.647C10.3187 7.64132 11.411 7.90634 12.393 8.419C12.527 8.496 12.654 8.579 12.779 8.665C14.0024 8.12713 15.3407 7.9028 16.6727 8.01231C18.0046 8.12183 19.2883 8.56173 20.4074 9.29222C21.5266 10.0227 22.4459 11.0207 23.0823 12.196C23.7187 13.3712 24.0519 14.6865 24.052 16.023C24.0532 17.0873 23.8424 18.1411 23.4319 19.1231C23.0214 20.105 22.4194 20.9953 21.661 21.742C22.0404 21.7854 22.4221 21.8068 22.804 21.806C24.2604 21.8712 25.6937 21.4243 26.855 20.543C27.7197 19.7826 28.316 18.7634 28.555 17.637C28.7874 15.854 28.6366 14.0419 28.1124 12.3219C27.5883 10.6018 26.703 9.01353 25.5157 7.66314C24.3284 6.31275 22.8665 5.23139 21.2277 4.49138C19.589 3.75136 17.8111 3.36973 16.013 3.372Z" fill="#5881D8"/>
</svg>

<svg width="32" height="32" fill="none" xmlns="http://www.w3.org/2000/svg"><path d="M16 2a14 14 0 1014 14A14.016 14.016 0 0016 2z" fill="#fff"/><path d="M15.488 16.252c-.126.273-.265.579-.408.9a22.963 22.963 0 00-1.28 3.453c-.083.38-.123.767-.119 1.155 0 .174.009.356.024.542a6.658 6.658 0 004.413.067 3.965 3.965 0 01-.44-.466c-.9-1.146-1.4-2.827-2.194-5.652M12.169 10.556a6.676 6.676 0 00-.077 10.881c.411-1.71 1.44-3.276 2.983-6.415-.092-.252-.2-.527-.313-.817a10.207 10.207 0 00-1.6-2.882 4.44 4.44 0 00-1-.767" fill="#91DC47"/><path d="M21.84 23.7a10.878 10.878 0 01-2.257-.471 8.036 8.036 0 01-8.867-13.247 5.9 5.9 0 00-1.4-.171c-2.358.022-4.848 1.327-5.884 4.852-.072.45-.096.906-.074 1.361a12.65 12.65 0 0023 7.274 14.734 14.734 0 01-3.448.459 8.875 8.875 0 01-1.07-.057z" fill="#63B132"/><path d="M19.463 21.244c.162.07.33.127.5.172a6.689 6.689 0 00-2.931-12.005 6.681 6.681 0 00-3.122.264c1.358 1.548 2.011 3.761 2.643 6.181 0 0 .2.673.547 1.562.36.973.816 1.907 1.363 2.788.242.423.585.78 1 1.036" fill="#90B4FE"/><path d="M16.013 3.372A12.632 12.632 0 005.731 8.656a6.425 6.425 0 013.48-1.009 6.8 6.8 0 013.182.772c.134.077.261.16.386.246a8.038 8.038 0 018.882 13.077c.38.043.761.065 1.143.064a6.24 6.24 0 004.051-1.263 5.348 5.348 0 001.7-2.906A12.632 12.632 0 0016.013 3.372z" fill="#5881D8"/></svg>
